local/share/icons/dracula-icons-main/symbolic/actions/align-vertical-bottom-to-anchor-symbolic.svg

<?xml version="1.0" encoding="UTF-8"?>
<svg xmlns="http://www.w3.org/2000/svg" xmlns:xlink="http://www.w3.org/1999/xlink" width="16" height="16" viewBox="0 0 16 16">
<defs>
<filter id="filter-remove-color" x="0%" y="0%" width="100%" height="100%">
<feColorMatrix color-interpolation-filters="sRGB" values="0 0 0 0 1 0 0 0 0 1 0 0 0 0 1 0 0 0 1 0" />
</filter>
<mask id="mask-0">
<g filter="url(#filter-remove-color)">
<rect x="-1.6" y="-1.6" width="19.2" height="19.2" fill="rgb(0%, 0%, 0%)" fill-opacity="0.3"/>
</g>
</mask>
<clipPath id="clip-0">
<rect x="0" y="0" width="5" height="5"/>
</clipPath>
<g id="source-1445" clip-path="url(#clip-0)">
<path fill-rule="nonzero" fill="rgb(21.176471%, 21.176471%, 21.176471%)" fill-opacity="0.931" d="M 3.703125 3.96875 L 3.703125 2.644531 L 2.910156 2.644531 L 2.910156 3.96875 Z M 3.703125 3.96875 "/>
</g>
<mask id="mask-1">
<g filter="url(#filter-remove-color)">
<rect x="-1.6" y="-1.6" width="19.2" height="19.2" fill="rgb(0%, 0%, 0%)" fill-opacity="0.1"/>
</g>
</mask>
<clipPath id="clip-1">
<rect x="0" y="0" width="5" height="5"/>
</clipPath>
<g id="source-1449" clip-path="url(#clip-1)">
<path fill-rule="nonzero" fill="rgb(21.176471%, 21.176471%, 21.176471%)" fill-opacity="0.931" d="M 3.175781 2.644531 L 2.382812 2.644531 L 2.382812 1.058594 L 3.175781 1.058594 Z M 1.589844 2.644531 L 0.792969 2.644531 L 0.792969 0.265625 L 1.589844 0.265625 Z M 1.589844 2.644531 "/>
</g>
</defs>
<path fill-rule="nonzero" fill="rgb(21.176471%, 21.176471%, 21.176471%)" fill-opacity="1" d="M 4.234375 2.910156 L 3.96875 2.910156 L 3.96875 4.101562 C 3.96875 4.136719 3.957031 4.167969 3.929688 4.195312 C 3.90625 4.21875 3.871094 4.234375 3.835938 4.234375 L 2.777344 4.234375 C 2.707031 4.234375 2.644531 4.175781 2.644531 4.101562 L 2.644531 2.910156 L 0 2.910156 L 0 2.382812 L 0.53125 2.382812 L 0.53125 0.132812 C 0.53125 0.0585938 0.585938 0 0.660156 0 L 1.71875 0 C 1.792969 0 1.851562 0.0585938 1.851562 0.132812 L 1.851562 2.382812 L 2.117188 2.382812 L 2.117188 0.925781 C 2.117188 0.851562 2.175781 0.792969 2.25 0.792969 L 3.308594 0.792969 C 3.382812 0.792969 3.441406 0.851562 3.441406 0.925781 L 3.441406 2.378906 L 4.234375 2.378906 Z M 3.703125 3.96875 L 3.703125 2.910156 L 2.910156 2.910156 L 2.910156 3.96875 Z M 3.175781 2.378906 L 3.175781 1.058594 L 2.382812 1.058594 L 2.382812 2.382812 Z M 1.589844 2.378906 L 1.589844 0.265625 L 0.792969 0.265625 L 0.792969 2.378906 Z M 1.589844 2.378906 "/>
<g mask="url(#mask-0)">
<use xlink:href="#source-1445"/>
</g>
<g mask="url(#mask-1)">
<use xlink:href="#source-1449"/>
</g>
</svg>

<svg xmlns="http://www.w3.org/2000/svg" viewBox="0 0 4.233 4.233" height="16" width="16"><path d="M4.233 2.91H3.97v1.191a.132.132 0 0 1-.133.132H2.778a.132.132 0 0 1-.132-.132v-1.19H0v-.53h.53V.132C.53.06.587 0 .66 0H1.72c.073 0 .132.059.132.132v2.25h.265V.925c0-.073.059-.132.132-.132h1.058c.074 0 .133.059.133.132v1.455h.793zM3.704 3.97V2.91H2.91V3.97zM3.175 2.38V1.058h-.794v1.323zm-1.587 0V.265H.794V2.38z" style="marker:none" fill="#363636"/><rect transform="matrix(0 -1 -1 0 0 0)" ry="0" rx="0" y="-3.704" x="-3.969" height=".794" width="1.323" style="marker:none" opacity=".3" fill="#363636" fill-opacity=".931"/><path d="M3.175 2.646h-.794V1.058h.794zm-1.587 0H.794V.265h.794z" opacity=".1" fill="#363636" fill-opacity=".931"/></svg>
